X:33
T:Ni-og-nitti \ol
O:norway
C:anon.
R:Drinking song, reinlender
Z:Transcribed by Frank Nordberg - http://www.musicaviva.com
M:2/4
L:1/16
K:G
DD|"G"GGGG G2FG|"D7"A2A2 z2 DD|"D7"AAAA A2GA|"G"B2B2 z2 BB|
w:Det st\aar ni-og-nit-ti \ol op-p\aa hyl-la, Det st\aar ni-og-nit-ti \ol op-p\aa hyl-la, og s\aa
"C"cccc E2cc|"G"BBBB D2BB|"D7"AAAA (GF)EF|"G"G2G2|]
w:tar vi oss en \ol, og s\aa tar vi oss en \ol, det st\aar \aatt-og-nit-ti \ol_ op-p\aa hyl-la
W:
W:Det st\aar ni-og-nitti \ol opp\aa hylla,
W:Det st\aar ni-og-nitti \ol opp\aa hylla,
W:og s\aa tar vi oss en \ol,
W:og s\aa tar vi oss en \ol,
W:det st\aar \aatt'-og-nitti \ol opp\aa hylla





